X:608
T:Kate Dalrymple
C:Joe Buchanan's Scottish Tome - Page 176.1
I:176 1
Z:Carl Allison
R:Reel
L:1/8
M:4/4
K:A
"A"A2 Ac "E7"B2 Bc | "A"A2 Ac "E7"B2 Bc | "A/C#"A2 a2  "D"fedc | "E7"B2 e2 "A"c2 A2 |
"A"A2 Ac "E7"B2 Bc | "A"A2 Ac "E7"B2 Bc | "A/C#"A2 a2 "D"fedc | "E7"B2 e2 "A"c2 A2 |
"A"e2 ef edcd | "A"e2 a2 e2 c2 | "A"e2 a2 c2 a2 | "A"e2 a2 "A/C#"e2 c2 |
"D"d2 fd "A/C#"c2 ec | "Bm"B2 Bc "E7"eccB | "A/C#"A2 a2 "D"fedc | "E7"B2 e2 "A"c2 A2 :|

